polaris-icons/icons/new-icons/AppExtensionMinor.svg

<svg width="20" height="20" viewBox="0 0 20 20" fill="none" xmlns="http://www.w3.org/2000/svg">
<path d="M12.2804 8.78031C11.9875 9.0732 11.5126 9.07319 11.2197 8.78029C10.9268 8.48738 10.9268 8.01251 11.2197 7.71962L14.4395 4.50001L13.2499 4.5C12.8357 4.5 12.4999 4.16421 12.4999 3.74999C12.4999 3.33578 12.8357 3 13.2499 3L16.2503 3.00003C16.4492 3.00003 16.6399 3.07906 16.7806 3.21972C16.9212 3.36039 17.0003 3.55116 17.0002 3.75008L17 6.75005C17 7.16427 16.6642 7.50003 16.25 7.5C15.8358 7.49997 15.5 7.16416 15.5 6.74995L15.5001 5.56075L12.2804 8.78031Z" fill="#4A4A4A"/>
<path fill-rule="evenodd" clip-rule="evenodd" d="M5.75 3.49991C4.50736 3.49991 3.5 4.50727 3.5 5.74991V8.49991C3.5 9.05219 3.94772 9.49991 4.5 9.49991H8.5C9.05229 9.49991 9.5 9.05219 9.5 8.49991V4.49991C9.5 3.94762 9.05228 3.49991 8.5 3.49991H5.75ZM5 5.74991C5 5.3357 5.33579 4.99991 5.75 4.99991H8V7.99991H5V5.74991Z" fill="#4A4A4A"/>
<path fill-rule="evenodd" clip-rule="evenodd" d="M3.5 14.2499C3.5 15.4925 4.50736 16.4999 5.75 16.4999H8.5C9.05228 16.4999 9.5 16.0522 9.5 15.4999V11.4999C9.5 10.9476 9.05229 10.4999 8.5 10.4999H4.5C3.94772 10.4999 3.5 10.9476 3.5 11.4999V14.2499ZM5.75 14.9999C5.33579 14.9999 5 14.6641 5 14.2499V11.9999H8V14.9999H5.75Z" fill="#4A4A4A"/>
<path fill-rule="evenodd" clip-rule="evenodd" d="M14.25 16.4999C15.4926 16.4999 16.5 15.4925 16.5 14.2499V11.4999C16.5 10.9476 16.0523 10.4999 15.5 10.4999H11.5C10.9477 10.4999 10.5 10.9476 10.5 11.4999V15.4999C10.5 16.0522 10.9477 16.4999 11.5 16.4999H14.25ZM15 14.2499C15 14.6641 14.6642 14.9999 14.25 14.9999H12V11.9999H15V14.2499Z" fill="#4A4A4A"/>
</svg>

<svg viewBox="0 0 20 20" xmlns="http://www.w3.org/2000/svg"><path d="M12.28 8.78a.75.75 0 0 1-1.06-1.06l3.22-3.22h-1.19a.75.75 0 0 1 0-1.5h3a.75.75 0 0 1 .75.75v3a.75.75 0 1 1-1.5 0v-1.19l-3.22 3.22Z" fill="#5C5F62"/><path fill-rule="evenodd" d="M5.75 3.5a2.25 2.25 0 0 0-2.25 2.25v2.75a1 1 0 0 0 1 1h4a1 1 0 0 0 1-1v-4a1 1 0 0 0-1-1h-2.75Zm-.75 2.25a.75.75 0 0 1 .75-.75h2.25v3h-3v-2.25Z" fill="#5C5F62"/><path fill-rule="evenodd" d="M3.5 14.25a2.25 2.25 0 0 0 2.25 2.25h2.75a1 1 0 0 0 1-1v-4a1 1 0 0 0-1-1h-4a1 1 0 0 0-1 1v2.75Zm2.25.75a.75.75 0 0 1-.75-.75v-2.25h3v3h-2.25Z" fill="#5C5F62"/><path fill-rule="evenodd" d="M14.25 16.5a2.25 2.25 0 0 0 2.25-2.25v-2.75a1 1 0 0 0-1-1h-4a1 1 0 0 0-1 1v4a1 1 0 0 0 1 1h2.75Zm.75-2.25a.75.75 0 0 1-.75.75h-2.25v-3h3v2.25Z" fill="#5C5F62"/></svg>
